T: Innes Russell Of Perth
M: 4/4
L: 1/8
K: Gmaj
[2 c>Af>e d<g D2 | (3FGA (3cBA G2 ||d>G (3Bcd g>de>g | B<GB<d g>fe<d | c<A (3ABc a>gf>e | c<Aa>g f<d (3ABc |B<G (3DGB g>fe>g | B<G (3Bcd g>dB<G | c<A (3gfe d<g D2 | F<d (3cBA G2 ||
